X: 8
T:Caymann Reel
% Nottingham Music Database
S:Mick Peat
M:4/4
L:1/4
K:A
"A"EA/2B/2 E/2c/2B/2E/2|c/2B/2A c2|"A"EA/2B/2 E/2c/2B/2E/2|c/2B/2A A2|
"A"EA/2B/2 E/2c/2B/2E/2|"A"c/2B/2A "E"B2|"A"c/2e/2a a=G|"D"F/2A/2B "A"A2:|
"E"B/2^A/2B/2G/2 E/2G/2B/2c/2|d/2B/2c B2|"D"A/2G/2A/2F/2 D/2F/2A/2B/2|\
"D"=c/2A/2B "A"A2|
"E"B/2^A/2B/2G/2 E/2G/2B/2c/2|d/2B/2c B2|"A"c/2e/2a a=G|"D"F/2A/2B "A"A2|<end>
<start>
